X: 1
T: The Pride of the Murray
T: 8 x 32H 3C (Iain Boyd/The World Around the Corner)
P: Oxford Street Hornpipe
C: Kerr's 4th, arr. T. Traub 12-07-2005
R: Reel
K: D
M: 4/4
L: 1/8
|: B2|"D"Adcd fdcd|"Em"Be^de "G"gede|"A"ca^ga =gece|"D"dfed "A"cBA^G|"D"Adcd fdcd|
"Em"Be^de "G"gede|"A"ca^ga =gece | "D"d2 f2 d2 :||: ed|"A"cAce =gbag|"D"fgaf dfed|
"A"cAce gbag|"D"fgaf d2 cB| "D"Adcd fdcd|"Em"Be^de gede|"A"ca^ga =gece|"D"d2 f2 d2 :|
